X: 15799
T: Goodnatured Man, The
R: hornpipe
M: 4/4
K: Dmajor
|:(3ABc|d2 f>d A2 d>A|F>GA>F D2 (3DEF|G2 B>G E2 E>D|[CE]>DE>F G>AB>c|
(3ded f>d A2 d>A|(3FGA A>F (3D[CE]D E>F|G>BA>G F>D (3E[DF][CE]|D2 D2 D2:|
|:(3EFG|A>^GA>F D2 G>A|B>^AB>G E2 F>G|A>^GA>F B>A=G>F|[CE]>DE>F G>E[CF]>[EG]|
A>^GA>F D2 G>A|B>^A (3B=AG (3EGE E>F|G>BA>G F>D (3ED[CE]|D2 D2 D2:|

